Catalina-light/actions/16/address-book-new.svg

<svg xmlns="http://www.w3.org/2000/svg" width="16" height="16" viewBox="0 0 16 16">
 <defs>
  <style id="current-color-scheme" type="text/css">
   .ColorScheme-Text { color:#5c616c; } .ColorScheme-Highlight { color:#5294e2; }
  </style>
 </defs>
 <path style="fill:currentColor" class="ColorScheme-Text" d="M 3 1.0097656 C 1.892 1.0097656 1 1.9017656 1 3.0097656 L 1 13.009766 C 1 14.117766 1.892 15.009766 3 15.009766 L 13 15.009766 C 14.108 15.009766 15 14.117766 15 13.009766 L 15 3.0097656 C 15 1.9017656 14.108 1.0097656 13 1.0097656 L 3 1.0097656 z M 8 4 C 10.2091 4 12 5.7909 12 8 L 12 8.5 C 12 9.32843 11.32843 10 10.5 10 C 10.05709 10.00022 9.6366925 9.8037238 9.3515625 9.4648438 C 8.9951725 9.7935738 8.52312 10 8 10 C 6.8954 10 6 9.10457 6 8 C 6 6.89543 6.89543 6 8 6 C 9.10457 6 10 6.89543 10 8 L 10 8.5 C 10 8.77614 10.22386 9 10.5 9 C 10.77614 9 11 8.77614 11 8.5 L 11 8 C 11 6.3431 9.6569 5 8 5 C 6.3431 5 5 6.3431 5 8 C 5 9.6568 6.3431 11 8 11 L 10.5 11 C 10.5 11 11 11 11 11.5 C 10.9688 12 10.5 12 10.5 12 L 8 12 C 5.7909 12 4 10.2091 4 8 C 4 5.7909 5.7909 4 8 4 z M 8 7 C 7.44771 7 7 7.44772 7 8 C 7 8.55228 7.44771 9 8 9 C 8.55229 9 9 8.55228 9 8 C 9 7.44772 8.55229 7 8 7 z"/>
</svg>

<svg width="16" height="16" viewBox="0 0 16 16" xmlns="http://www.w3.org/2000/svg">
<defs>
<style id="current-color-scheme" type="text/css">.ColorScheme-Text { color:#5c616c; } .ColorScheme-Highlight { color:#5294e2; }</style>
</defs>
<path class="ColorScheme-Text" d="m3 1.0098c-1.108 0-2 0.892-2 2v10c0 1.108 0.892 2 2 2h10c1.108 0 2-0.892 2-2v-10c0-1.108-0.892-2-2-2h-10zm5 2.9902c2.2091 0 4 1.7909 4 4v0.5c0 0.82843-0.67157 1.5-1.5 1.5-0.44291 2.2e-4 -0.86331-0.19628-1.1484-0.53516-0.35639 0.32873-0.82844 0.53516-1.3516 0.53516-1.1046 0-2-0.89543-2-2s0.89543-2 2-2 2 0.89543 2 2v0.5c0 0.27614 0.22386 0.5 0.5 0.5s0.5-0.22386 0.5-0.5v-0.5c0-1.6569-1.3431-3-3-3s-3 1.3431-3 3c0 1.6568 1.3431 3 3 3h2.5s0.5 0 0.5 0.5c-0.0312 0.5-0.5 0.5-0.5 0.5h-2.5c-2.2091 0-4-1.7909-4-4s1.7909-4 4-4zm0 3c-0.55229 0-1 0.44772-1 1s0.44771 1 1 1 1-0.44772 1-1-0.44771-1-1-1z" fill="#363636"/>
</svg>
